!!!!SEGMENT: 068-1-MEIf-003.krn
!!!COM: Chopin, Fryderyk
!!!OTL: Mazurka N.º 7.
!!!OPS: Op. 68
!!!PPR: Meissonnier fils
!!!PPP: Paris
!!!NIFC-rismID: 300605108
!!!NIFC-shelfmark: PL-Wbfc 840/n
!!!OMD: Allegro ma non troppo. ([quarter] = 132)
**kern	**kern	**dynam
*part1	*part1	*part1
*staff2	*staff1	*
*	*I" N.º 7.	*
*clefF4	*clefG2	*
*k[b-]	*k[b-]	*
*M3/4	*M3/4	*
=1	=1	=1
!	!	!LO:DY:rj
*ped	*	*
8.cL 8.F	8.ccL 8.a	f
16cJk 16F	16ccJk 16a	.
4c 4F	4cc 4a	.
!	!LO:TX:t=P:w źródle tempo metronomiczne w nawiasie jest zlokalizowane przed pierwszym systemem na wysokości drugiej pięciolinii:problem	!
4c 4F	4ff 4a	.
*Xped	*	*
.	.	.
=2	=2	=2
*^	*	*
8.cL 8.G	2.C	(<8.eeL> 8.g	.
16BnJk	.	16ddJk 16f	.
2c	.	2cc 2e)	.
*v	*v	*	*
=3	=3	=3
*ped	*	*
8.AL 8.D	8.aL 8.f	.
16AJk 16D	16aJk 16f	.
4A 4D	4a 4f	.
4A 4D	4dd 4f	.
*Xped	*	*
.	.	.
=4	=4	=4
*^	*	*
8.EL	2.AA	(<8.ccL 8.e	.
16G#XJk	.	16b-Jk 16d	.
2A	.	2a 2c)	.
*v	*v	*	*
=5	=5	=5
*ped	*	*
8.FL 8.BB-	8.fL 8.d	.
16FJk 16BB-	16fJk 16d	.
4F 4BB-	4f 4d	.
4F 4BB-	4b- 4d	.
*Xped	*	*
.	.	.
!!LO:LB:g=original
=6	=6	=6
8.FL 8.FF	(<8.aL 8.c	.
16FJk 16FF	16gJk 16B-	.
4F 4FF	4f 4A	.
4F/ 4BB-/	4b- 4d)	.
=7	=7	=7
*^	*	*
8.FL	2FF	(<8.aL 8.c	.
16FJk	.	16gJk 16B-	.
4F	.	4f 4A	.
8DL	4GG	4g 4Bn)	.
8GJ	.	.	.
=8	=8	=8	=8
8.GL	2.C	8.eL 8.c	.
16FJk	.	16dJk	.
2E	.	2c	.
*v	*v	*	*
=9	=9	=9
*ped	*	*
8.cL 8.F	8.ccL 8.a	p
16cJk 16F	16ccJk 16a	.
4c 4F	4cc 4a	.
4c 4F	4ff 4a	.
*Xped	*	*
.	.	.
=10	=10	=10
*^	*	*
8.cL 8.G	2.C	(<8.eeL> 8.g	.
16BnJk	.	16ddJk 16f	.
2c	.	2cc 2e)	.
*v	*v	*	*
=11	=11	=11
*ped	*	*
8.AL 8.D	8.aL 8.f	.
16AJk 16D	16aJk 16f	.
4A 4D	4a 4f	.
4A 4D	4dd 4f	.
*Xped	*	*
.	.	.
!!LO:LB:g=original
=12	=12	=12
*^	*	*
8.EL	2.AA	(<8.ccL 8.e	.
16G#XJk	.	16b-Jk 16d	.
2A	.	2a 2c)	.
*v	*v	*	*
=13	=13	=13
*ped	*	*
8.FL> 8.BB-	8.fL 8.d	.
16FJk 16BB-	16fJk 16d	.
4F/ 4BB-/	4f 4d	.
4F/ 4BB-/	4b- 4d	.
*Xped	*	*
.	.	.
=14	=14	=14
8.FL 8.FF	(<8.aL 8.c	.
16FJk 16FF	16gJk 16B-	.
4F 4FF	4f 4A	.
4F/ 4BB-/	4b- 4d)	.
=15	=15	=15
*^	*	*
8.FL	2FF	8.aL 8.c	.
16FJ	.	16gJk 16B-	.
4F	.	4f 4A	.
4rcyy	4BB-	4g^< 4d 4G<	.
*v	*v	*	*
=16	=16	=16
4C\	8dL 8G<	.
.	8eJ 8c	.
2F 2FF	2f 2A	.
=17	=17	=17
*^	*	*
*ped	*	*	*
8.AL	4AA	8.aaL 8.a	ff
16AJk	.	16aaJk 16a	.
4A	2A	4aa 4a	.
*Xped	*	*	*
.	.	.	.
4f 4d	.	4ff 4dd	.
*v	*v	*	*
!!LO:LB:g=original
=18	=18	=18
(<8qf 8qd/	(<8qff 8qdd/	.
8.eL 8.c#X)	8.eeL 8.cc#X)	.
16dJk 16Bn	16ddJk 16bn	.
4e 4c#	4ee [>4cc#	.
4c# 4E	4cc#] 4a	.
=19	=19	=19
*^	*	*
*ped	*	*	*
8.AL	4AA	8.aaL 8.a	.
16AJ	.	16aaJk 16a	.
4A	2A	4aa 4a	.
*Xped	*	*	*
.	.	.	.
4f 4d	.	4ff 4dd	.
*v	*v	*	*
=20	=20	=20
8.eL 8.c#X	8.eeL 8.cc#X	.
(>16dJk 16Bn	(>16ddJk 16bn	.
2B 2E)	2b 2e)	sf
=21	=21	=21
*^	*	*
!	!	!	!LO:DY:rj
*ped	*	*	*
8.AL	4AA	8.aaL 8.a	p
16AJ	.	16aaJk 16a	.
4A	2A	4aa 4a	.
*Xped	*	*	*
.	.	.	.
4f 4d	.	4ff 4dd	.
*v	*v	*	*
=22	=22	=22
(<8qf 8qd/	(<8qff 8qdd/	.
8.eL 8.c#X)	8.eeL 8.cc#X)	.
16dJk 16Bn	16ddJk 16bn	.
4e 4c#	4ee [>4cc#	.
4c# 4E	4cc#] 4a	.
=23	=23	=23
*^	*	*
*ped	*	*	*
8.AL	4AA	8.aaL 8.a	.
16AJk	.	16aaJk 16a	.
4A	2A	4aa 4a	.
*Xped	*	*	*
.	.	.	.
4f 4d	.	4ff 4dd	.
*v	*v	*	*
!!LO:LB:g=original
=24	=24	=24
8.eL 8.c#X	8.eeL 8.cc#X	<
(>16c#Jk 16A	(>16cc#Jk 16a	[
!	!	!LO:DY:rj
2A; 2AA)	2a; 2c#X)	sf
=25	=25	=25
*	*^	*
4c 4G 4C	8.ccnL	4b- 4e	p
.	16ccJ	.	.
4c 4F	4rcccyy	4cc 4a	.
4c 4F	4reeeyy	4ff 4a	.
*	*v	*v	*
=26	=26	=26
*^	*	*
8.cL 8.G	2.C	(<8.eeL> 8.g	.
16BnJk	.	16ddJk 16f	.
2c	.	2cc 2e)	.
*v	*v	*	*
=27	=27	=27
*ped	*	*
8.AL 8.D	8.aL 8.f	.
16AJk 16D	16aJk 16f	.
4A 4D	4a 4f	.
4A 4D	4dd 4f	.
*Xped	*	*
.	.	.
=28	=28	=28
*^	*	*
8.EL	2.AA	(<8.ccL 8.e	.
16G#XJk	.	16b-Jk 16d	.
2A	.	2a 2c)	.
*v	*v	*	*
=29	=29	=29
*ped	*	*
8.FL> 8.BB-	8.fL 8.d	.
16FJk 16BB-	16fJk 16d	.
4F/ 4BB-/	4f 4d	.
4F/ 4BB-/	4b- 4d	.
*Xped	*	*
.	.	.
!!LO:PB:g=original
=30	=30	=30
8.FL 8.FF	(<8.aL 8.c	.
16FJk 16FF	16gJk 16B-	.
4F 4FF	4f 4A	.
4F/ 4BB-/	4b- 4d)	.
=31	=31	=31
*^	*	*
8.FL	2FF	8.aL 8.c	.
16FJ	.	16gJk 16B-	.
4F	.	4f 4A	.
4rcyy	4BB-	4g^< 4d 4G<	.
*v	*v	*	*
=32	=32	=32
4C	8dL 8G	.
.	8eJ 8c	.
2F 2FF	2f 2A	.
=33||	=33||	=33||
*k[b-e-]	*k[b-e-]	*
*ped	*	*
!	!LO:TX:a:B:t=Poco piu vivo.	!
4f 4B-	2.rdd	.
4f 4B-	.	.
4f 4B-	.	.
=34	=34	=34
4f 4B-	2.rdd	.
4f 4B-	.	.
4f 4B-	.	.
=35	=35	=35
4f 4B-	2.rdd	.
4f^> 4B-	.	.
4f 4B-	.	.
=36	=36	=36
4f^> 4B-	2.rdd	.
4f 4B-	.	.
4f^> 4B-	.	.
!!LO:LB:g=original
=37	=37	=37
.	8qff/	.
!	!	!LO:DY:rj
4f 4B-	(>4.fff	p
4f 4B-	.	.
.	8eeen	.
4f 4B-	8fffL	.
.	8dddJ)	.
=38	=38	=38
4f 4B-	(>8bb-L	.
.	8ddd	.
4f 4B-	8ccc	.
.	8eeenJ	.
4f^> 4B-	4fff)	.
=39	=39	=39
4f 4B-	(>8bb-L	.
.	8ddd	.
4f 4B-	8ccc	.
.	8eeen	.
4f 4B-	8fff	.
.	8dddJ)	.
=40	=40	=40
4f 4B-	(>8bb-L	.
.	8ddd	.
4f 4B-	8ccc	.
.	8aaJ)	.
4f^> 4B-	4ff	.
=41	=41	=41
.	8qff/	.
4f 4B-	(>4.fff	.
4f 4B-	.	.
.	8eeenL	.
4f 4B-	8fff	.
.	8dddJ)	.
=42	=42	=42
4f 4B-	(>8bb-L	.
.	8ddd	.
4f 4B-	8ccc	.
.	8eeenJ	.
4f^> 4B-	4fff)	.
!!LO:LB:g=original
=43	=43	=43
4f 4B-	(>8bb-L	.
.	8ddd	.
4f 4B-	8ccc	.
.	8eeen	.
4f 4B-	8fff	.
.	8dddJ)	.
=44	=44	=44
*Xped	*	*
!	!LO:TX:b:i:t=riten.	!
4f 4B-	(>8bb-L	.
.	8ddd	.
*clefG2	*	*
4b- 4en 4c	8ccc	.
.	8bb-J	.
4b- 4e 4c	4gg)	.
*kcancel	*kcancel	*
*ped	*	*
=45||	=45||	=45||
*k[b-]	*k[b-]	*
!	!LO:TX:a:B:t=tempo 1.º	!
8.aL 8.f	8.ffL	.
*clefF4	*	*
16fJk 16c 16F	16ccJk 16a	.
4f 4c 4F	4cc 4a	.
4c 4F	4ff 4a	.
*Xped	*	*
.	.	.
=46	=46	=46
*^	*	*
8.cL 8.G	2.C	(>8.eeL 8.g	.
16BnJk	.	16ddJk 16f	.
2c	.	2cc) 2e	.
*v	*v	*	*
=47	=47	=47
*ped	*	*
8.AL 8.D	8.aL 8.f	.
16AJk 16D	16aJk 16f	.
4A 4D	4a 4f	.
4A 4D	4dd 4f	.
*Xped	*	*
.	.	.
=48	=48	=48
*^	*	*
8.EL	2.AA	(<8.ccL 8.e	.
16G#XJk	.	16b-Jk 16d	.
2A	.	2a 2c)	.
*v	*v	*	*
!!LO:LB:g=original
=49	=49	=49
*ped	*	*
8.FL> 8.BB-	8.fL 8.d	.
16FJk 16BB-	16fJk 16d	.
4F/ 4BB-/	4f 4d	.
4F/ 4BB-/	4b- 4d	.
*Xped	*	*
.	.	.
=50	=50	=50
8.FL 8.FF	(<8.aL 8.c	.
16FJk 16FF	16gJk 16B-	.
4F 4FF	4f 4A	.
4F/ 4BB-/	4b- 4d)	.
=51	=51	=51
*^	*	*
8.FL	2FF	(<8.aL 8.c	.
16FJk	.	16gJk 16B-	.
4F	.	4f 4A	.
8DL	4GG	4g 4Bn)	.
8GJ	.	.	.
=52	=52	=52	=52
8.GL	2.C	8.eL 8.c	.
16FJk	.	16dJk	.
2E	.	2c	.
*v	*v	*	*
=53	=53	=53
*ped	*	*
8.cL 8.F	8.ccL 8.a	p
16cJk 16F	16ccJk 16a	.
4c 4F	4cc 4a	.
4c 4F	4ff 4a	.
*Xped	*	*
.	.	.
=54	=54	=54
*^	*	*
8.cL 8.G	2.C	(<8.eeL> 8.g	.
16BnJk	.	16ddJk 16f	.
2c	.	2cc 2e)	.
*v	*v	*	*
!!LO:LB:g=original
=55	=55	=55
*ped	*	*
8.AL 8.D	8.aL 8.f	.
16AJk 16D	16aJk 16f	.
4A 4D	4a 4f	.
4A 4D	4dd 4f	.
*Xped	*	*
.	.	.
=56	=56	=56
*^	*	*
8.EL	2.AA	(<8.ccL 8.e	.
16G#XJk	.	16b-Jk 16d	.
2A	.	2a 2c)	.
*v	*v	*	*
=57	=57	=57
*ped	*	*
8.FL> 8.BB-	8.fL 8.d	.
16FJk 16BB-	16fJk 16d	.
4F/ 4BB-/	4f 4d	.
4F/ 4BB-/	4b- 4d	.
*Xped	*	*
.	.	.
=58	=58	=58
8.FL 8.FF	(<8.aL 8.c	.
16FJk 16FF	16gJk 16B-	.
4F 4FF	4f 4A	.
4F/ 4BB-/	4b- 4d)	.
=59	=59	=59
*^	*	*
8.FL	2FF	8.aL 8.c	.
16FJ	.	16gJk 16B-	.
4F	.	4f 4A	.
4rcyy	4BB-\	4g 4d 4G<	.
*v	*v	*	*
=60	=60	=60
4C	8dL 8G	.
.	8eJ 8c	.
2F 2FF	2f 2A	.
==||	==||	==||
*-	*-	*-
!!!system-decoration: {(s1,s2)}
!!title: @{OTL}; @{OPS} @{ONM} publisher: @{PPR}
!!!RDF**kern: > = above
!!!RDF**kern: < = below
!!!RDF**kern: N = linked
!!!RDF**dynam: > = "dim."
!!!RDF**kern: i = editorial accidental
!!!ENC: Emilia Ziętek
!!!END: 2020-02-03
!!!EED: Antoni Szymański
!!!EST: revision finished 2020-02-12
!!!rism-genre: Mazurka
!!!rism-key: F major
!!!rism-opus: op. 68, no. 3
!!!rism-title: Mazurka in F major op. 68, no. 3
!!!rism-permalink: https://opac.rism.info/search?id=300605108&View=rism
!!!rism-773a-OPR: 300605105
!!!rism-parent-permalink: https://opac.rism.info/search?id=300605105&View=rism
